!!!OTL: ES WOLLT EIN MAEDL ZUM TANZE GEHN
!!!ARE: Europa, Mitteleuropa, Deutschland, Schlesien
!!!SCT: E0174
!!!YEM: Copyright 1995, estate of Helmut Schaffrath.
**kern
*ICvox
*Ivox
*M3/4
*k[f#]
*G:
{8d
=1
8d
8g
4g
4g
=2
8f#
8g
4.a}
{8a
=3
8g
8g
4g
4a
=4
4b
4a
8r}
{8g
=5
8b
8a
4b
4dd
=6
8cc
8b
4a}
{4a
=7
8g
8g
4cc
4b
=8
4a
4g
8r}
==
!!!AGN: erzaehlendes Volks - Lied, Sage, Pflanzen - Maerchen, Moral - Lied
!!!ONB: ESAC (Essen Associative Code) Database: ERK1
!!!AMT: simple triple
!!!AIN: vox
!!!EED: Helmut Schaffrath
!!!EEV: 1.0
*-
